icons/ChevronUp_filled.svg

<svg width="24" height="24" viewBox="0 0 24 24" fill="none" xmlns="http://www.w3.org/2000/svg">
<path fill-rule="evenodd" clip-rule="evenodd" d="M11.1161,9.11612c0.4882,-0.48816 1.2796,-0.48816 1.7678,0l4,3.99998c0.4881,0.4882 0.4881,1.2796 0,1.7678c-0.4882,0.4881 -1.2796,0.4881 -1.7678,0l-3.1161,-3.1161l-3.11612,3.1161c-0.48815,0.4881 -1.27961,0.4881 -1.76776,0c-0.48816,-0.4882 -0.48816,-1.2796 0,-1.7678z" fill="#002B51"/>
</svg>

<svg width="24" height="24" viewBox="0 0 24 24" fill="none" xmlns="http://www.w3.org/2000/svg">
<path fill-rule="evenodd" clip-rule="evenodd" d="M11.1161 9.11612C11.6043 8.62796 12.3957 8.62796 12.8839 9.11612L16.8839 13.1161C17.372 13.6043 17.372 14.3957 16.8839 14.8839C16.3957 15.372 15.6043 15.372 15.1161 14.8839L12 11.7678L8.88388 14.8839C8.39573 15.372 7.60427 15.372 7.11612 14.8839C6.62796 14.3957 6.62796 13.6043 7.11612 13.1161L11.1161 9.11612Z" fill="#002B51"/>
</svg>
